img/icons/instagram.svg

<svg width="24" height="24" viewBox="0 0 24 24" fill="none" xmlns="http://www.w3.org/2000/svg">
<g id="instagram 1">
<path id="Vector" d="M12 9.52C11.5095 9.52 11.03 9.66545 10.6222 9.93795C10.2144 10.2105 9.89648 10.5978 9.70878 11.0509C9.52107 11.5041 9.47196 12.0028 9.56765 12.4838C9.66334 12.9649 9.89954 13.4068 10.2464 13.7536C10.5932 14.1005 11.0351 14.3367 11.5162 14.4323C11.9972 14.528 12.4959 14.4789 12.9491 14.2912C13.4022 14.1035 13.7895 13.7856 14.062 13.3778C14.3346 12.97 14.48 12.4905 14.48 12C14.48 11.6743 14.4159 11.3518 14.2912 11.0509C14.1666 10.7501 13.9839 10.4767 13.7536 10.2464C13.5233 10.0161 13.2499 9.83341 12.9491 9.70878C12.6482 9.58415 12.3257 9.52 12 9.52V9.52ZM21.93 7.07C21.9247 6.29776 21.7825 5.53257 21.51 4.81C21.3093 4.28126 20.9987 3.80109 20.5988 3.40119C20.1989 3.00128 19.7187 2.69072 19.19 2.49C18.4674 2.21746 17.7022 2.07526 16.93 2.07C15.64 2 15.26 2 12 2C8.74 2 8.36 2 7.07 2.07C6.29776 2.07526 5.53257 2.21746 4.81 2.49C4.28126 2.69072 3.80109 3.00128 3.40119 3.40119C3.00128 3.80109 2.69072 4.28126 2.49 4.81C2.21746 5.53257 2.07526 6.29776 2.07 7.07C2 8.36 2 8.74 2 12C2 15.26 2 15.64 2.07 16.93C2.08076 17.705 2.22277 18.4725 2.49 19.2C2.68983 19.7263 3.00013 20.2037 3.4 20.6C3.79819 21.0023 4.27939 21.3129 4.81 21.51C5.53257 21.7825 6.29776 21.9247 7.07 21.93C8.36 22 8.74 22 12 22C15.26 22 15.64 22 16.93 21.93C17.7022 21.9247 18.4674 21.7825 19.19 21.51C19.7206 21.3129 20.2018 21.0023 20.6 20.6C20.9999 20.2037 21.3102 19.7263 21.51 19.2C21.7823 18.4739 21.9244 17.7055 21.93 16.93C22 15.64 22 15.26 22 12C22 8.74 22 8.36 21.93 7.07V7.07ZM19.39 15.07C19.3579 15.6871 19.2262 16.295 19 16.87C18.8059 17.3497 18.5173 17.7854 18.1514 18.1514C17.7854 18.5173 17.3497 18.8059 16.87 19C16.2895 19.2136 15.6783 19.3318 15.06 19.35C14.27 19.35 14.06 19.35 12 19.35C9.94 19.35 9.73 19.35 8.94 19.35C8.32173 19.3318 7.71049 19.2136 7.13 19C6.6341 18.8157 6.18628 18.5217 5.82 18.14C5.45767 17.7813 5.17784 17.3479 5 16.87C4.78556 16.2901 4.67061 15.6782 4.66 15.06C4.66 14.27 4.66 14.06 4.66 12C4.66 9.94 4.66 9.73 4.66 8.94C4.67061 8.32183 4.78556 7.70988 5 7.13C5.18428 6.6341 5.47827 6.18628 5.86 5.82C6.22033 5.45962 6.65326 5.18009 7.13 5C7.71049 4.78641 8.32173 4.66821 8.94 4.65V4.65C9.73 4.65 9.94 4.65 12 4.65C14.06 4.65 14.27 4.65 15.06 4.65C15.6783 4.66821 16.2895 4.78641 16.87 5C17.3659 5.18428 17.8137 5.47827 18.18 5.86C18.5423 6.21875 18.8222 6.65213 19 7.13C19.2136 7.71049 19.3318 8.32173 19.35 8.94C19.35 9.73 19.35 9.94 19.35 12C19.35 14.06 19.42 14.27 19.39 15.06V15.07ZM17.79 7.63C17.6709 7.30698 17.4832 7.01364 17.2398 6.77021C16.9964 6.52678 16.703 6.33906 16.38 6.22C15.9365 6.06626 15.4693 5.99179 15 6C14.22 6 14 6 12 6C10 6 9.78 6 9 6C8.52827 6.00461 8.06107 6.09263 7.62 6.26C7.30193 6.37366 7.01169 6.55371 6.76858 6.7882C6.52547 7.02269 6.33506 7.30624 6.21 7.62C6.06478 8.06537 5.99383 8.5316 6 9C6 9.78 6 10 6 12C6 14 6 14.22 6 15C6.00991 15.4712 6.09777 15.9375 6.26 16.38C6.37906 16.703 6.56678 16.9964 6.81021 17.2398C7.05364 17.4832 7.34698 17.6709 7.67 17.79C8.09667 17.9469 8.54565 18.0347 9 18.05V18.05C9.78 18.05 10 18.05 12 18.05C14 18.05 14.22 18.05 15 18.05C15.4717 18.0454 15.9389 17.9574 16.38 17.79C16.703 17.6709 16.9964 17.4832 17.2398 17.2398C17.4832 16.9964 17.6709 16.703 17.79 16.38C17.9574 15.9389 18.0454 15.4717 18.05 15C18.05 14.22 18.05 14 18.05 12C18.05 10 18.05 9.78 18.05 9C18.0503 8.5278 17.9621 8.05972 17.79 7.62V7.63ZM12 15.82C11.4988 15.82 11.0026 15.7211 10.5397 15.529C10.0768 15.3369 9.6563 15.0554 9.30238 14.7005C8.94846 14.3457 8.66803 13.9245 8.47714 13.4611C8.28626 12.9977 8.18868 12.5012 8.19 12V12C8.19 11.2441 8.4143 10.5051 8.83449 9.87669C9.25468 9.24828 9.85187 8.75866 10.5505 8.46983C11.2491 8.181 12.0177 8.10594 12.7589 8.25415C13.5002 8.40236 14.1808 8.76717 14.7147 9.30241C15.2485 9.83764 15.6116 10.5192 15.7578 11.2609C15.9041 12.0026 15.827 12.771 15.5363 13.4688C15.2457 14.1666 14.7545 14.7625 14.125 15.1811C13.4955 15.5996 12.7559 15.822 12 15.82V15.82ZM16 8.93C15.7789 8.9066 15.5744 8.80222 15.4257 8.63697C15.277 8.47172 15.1947 8.25729 15.1947 8.035C15.1947 7.81271 15.277 7.59828 15.4257 7.43303C15.5744 7.26778 15.7789 7.1634 16 7.14V7.14C16.2211 7.1634 16.4256 7.26778 16.5743 7.43303C16.723 7.59828 16.8053 7.81271 16.8053 8.035C16.8053 8.25729 16.723 8.47172 16.5743 8.63697C16.4256 8.80222 16.2211 8.9066 16 8.93Z" fill="url(#paint0_linear_1_105)"/>
</g>
<defs>
<linearGradient id="paint0_linear_1_105" x1="12" y1="2" x2="12" y2="22" gradientUnits="userSpaceOnUse">
<stop stop-color="#FF004D"/>
<stop offset="1" stop-color="#D62A5D"/>
</linearGradient>
</defs>
</svg>

<svg xmlns="http://www.w3.org/2000/svg" data-name="Layer 1" viewBox="0 0 24 24"><path d="M12,9.52A2.48,2.48,0,1,0,14.48,12,2.48,2.48,0,0,0,12,9.52Zm9.93-2.45a6.53,6.53,0,0,0-.42-2.26,4,4,0,0,0-2.32-2.32,6.53,6.53,0,0,0-2.26-.42C15.64,2,15.26,2,12,2s-3.64,0-4.93.07a6.53,6.53,0,0,0-2.26.42A4,4,0,0,0,2.49,4.81a6.53,6.53,0,0,0-.42,2.26C2,8.36,2,8.74,2,12s0,3.64.07,4.93a6.86,6.86,0,0,0,.42,2.27,3.94,3.94,0,0,0,.91,1.4,3.89,3.89,0,0,0,1.41.91,6.53,6.53,0,0,0,2.26.42C8.36,22,8.74,22,12,22s3.64,0,4.93-.07a6.53,6.53,0,0,0,2.26-.42,3.89,3.89,0,0,0,1.41-.91,3.94,3.94,0,0,0,.91-1.4,6.6,6.6,0,0,0,.42-2.27C22,15.64,22,15.26,22,12S22,8.36,21.93,7.07Zm-2.54,8A5.73,5.73,0,0,1,19,16.87,3.86,3.86,0,0,1,16.87,19a5.73,5.73,0,0,1-1.81.35c-.79,0-1,0-3.06,0s-2.27,0-3.06,0A5.73,5.73,0,0,1,7.13,19a3.51,3.51,0,0,1-1.31-.86A3.51,3.51,0,0,1,5,16.87a5.49,5.49,0,0,1-.34-1.81c0-.79,0-1,0-3.06s0-2.27,0-3.06A5.49,5.49,0,0,1,5,7.13a3.51,3.51,0,0,1,.86-1.31A3.59,3.59,0,0,1,7.13,5a5.73,5.73,0,0,1,1.81-.35h0c.79,0,1,0,3.06,0s2.27,0,3.06,0A5.73,5.73,0,0,1,16.87,5a3.51,3.51,0,0,1,1.31.86A3.51,3.51,0,0,1,19,7.13a5.73,5.73,0,0,1,.35,1.81c0,.79,0,1,0,3.06S19.42,14.27,19.39,15.06Zm-1.6-7.44a2.38,2.38,0,0,0-1.41-1.41A4,4,0,0,0,15,6c-.78,0-1,0-3,0s-2.22,0-3,0a4,4,0,0,0-1.38.26A2.38,2.38,0,0,0,6.21,7.62,4.27,4.27,0,0,0,6,9c0,.78,0,1,0,3s0,2.22,0,3a4.27,4.27,0,0,0,.26,1.38,2.38,2.38,0,0,0,1.41,1.41A4.27,4.27,0,0,0,9,18.05H9c.78,0,1,0,3,0s2.22,0,3,0a4,4,0,0,0,1.38-.26,2.38,2.38,0,0,0,1.41-1.41A4,4,0,0,0,18.05,15c0-.78,0-1,0-3s0-2.22,0-3A3.78,3.78,0,0,0,17.79,7.62ZM12,15.82A3.81,3.81,0,0,1,8.19,12h0A3.82,3.82,0,1,1,12,15.82Zm4-6.89a.9.9,0,0,1,0-1.79h0a.9.9,0,0,1,0,1.79Z"/></svg>
